svg/icon/dew.svg

<svg xmlns="http://www.w3.org/2000/svg" xmlns:xlink="http://www.w3.org/1999/xlink" width="32" height="32" viewBox="0 0 32 32"><defs><linearGradient id="dew-c" x1="50%" x2="50%" y1="0%" y2="100%"><stop offset="0%" stop-color="#FFF" stop-opacity=".5"/><stop offset="100%" stop-opacity=".5"/></linearGradient><circle id="dew-b" cx="16" cy="15" r="15"/><filter id="dew-a" width="111.7%" height="111.7%" x="-5.8%" y="-4.2%" filterUnits="objectBoundingBox"><feOffset dy=".5" in="SourceAlpha" result="shadowOffsetOuter1"/><feGaussianBlur in="shadowOffsetOuter1" result="shadowBlurOuter1" stdDeviation=".5"/><feComposite in="shadowBlurOuter1" in2="SourceAlpha" operator="out" result="shadowBlurOuter1"/><feColorMatrix in="shadowBlurOuter1" values="0 0 0 0 0 0 0 0 0 0 0 0 0 0 0 0 0 0 0.199473505 0"/></filter><path id="dew-e" d="M12.1610502,21.8163043 C12.7791391,21.8165129 13.2800858,22.3052887 13.2800857,22.9081521 C13.2800858,23.5110155 12.7791391,23.9997914 12.1610502,24 L10.7077372,24 C10.3873583,24 10.0801069,23.8758392 9.85360112,23.6548421 C9.62709532,23.433845 9.49989731,23.1341224 9.50000006,22.8216355 L9.50000006,7.14889604 C9.49989727,6.84415915 9.62396532,6.55187471 9.84488891,6.33639318 C10.0658125,6.12091166 10.3654787,5.9998998 10.6779118,6.00000006 L12.2346455,6.00000006 C12.8528857,6.00000006 13.3540684,6.488837 13.3540684,7.09184793 C13.3540684,7.38138926 13.2361172,7.65906621 13.0261735,7.86376742 C12.8162299,8.06846863 12.5314993,8.18341822 12.2346455,8.183318 L11.8899098,8.183318 L11.8899098,21.8163043 L12.1610502,21.8163043 Z M24.3313845,10.3636135 C25.109945,11.7021661 25.5,13.1990178 25.5,14.8553019 C25.5,16.511586 25.1049096,18.0084376 24.3178275,19.347368 C23.5307454,20.6862984 22.6561237,21.7116531 21.2190791,22.6410461 C19.899787,23.4945009 18.520844,23.9992444 16.8122716,23.9992444 L16.2452006,23.9992444 C15.6269604,23.9992444 15.1257778,23.5104075 15.1257778,22.9073965 C15.1257778,22.3043856 15.6269604,21.8155487 16.2452006,21.8155487 L16.9346721,21.8155487 C18.1455081,21.8155487 19.0240032,21.314961 20.0105672,20.7463689 C20.9971313,20.1777769 21.6292759,19.2472505 22.2017697,18.2434305 C22.7740052,17.2402401 23.060123,16.1194274 23.060123,14.8809924 C23.0598648,13.6261859 22.7696153,12.4968097 22.1893747,11.4928638 C21.6287637,10.509452 20.8081806,9.69055727 19.813022,9.12140044 C18.8090276,8.54411894 17.6934781,8.25547818 16.4663738,8.25547818 L16.1692813,8.25547818 C15.5510411,8.25547818 15.0498584,7.76664124 15.0498584,7.16363032 C15.0498584,6.87408899 15.1678096,6.59641203 15.3777533,6.39171083 C15.5876969,6.18700962 15.8724275,6.07206003 16.1692813,6.07216025 L16.5178905,6.07216025 C18.2098071,6.07216025 19.7400723,6.45273283 21.1086862,7.21387799 C22.458056,7.95653546 23.5727269,9.04596985 24.3313845,10.3636135 Z"/><filter id="dew-d" width="121.9%" height="119.4%" x="-10.9%" y="-6.9%" filterUnits="objectBoundingBox"><feOffset dy=".5" in="SourceAlpha" result="shadowOffsetOuter1"/><feGaussianBlur in="shadowOffsetOuter1" result="shadowBlurOuter1" stdDeviation=".5"/><feColorMatrix in="shadowBlurOuter1" values="0 0 0 0 0 0 0 0 0 0 0 0 0 0 0 0 0 0 0.204257246 0"/></filter></defs><g fill="none" fill-rule="evenodd"><use fill="#000" filter="url(#dew-a)" xlink:href="#dew-b"/><use fill="#FEC907" xlink:href="#dew-b"/><use fill="url(#dew-c)" style="mix-blend-mode:soft-light" xlink:href="#dew-b"/><circle cx="16" cy="15" r="14.5" stroke="#000" stroke-opacity=".097"/><g fill-rule="nonzero"><use fill="#000" filter="url(#dew-d)" xlink:href="#dew-e"/><use fill="#FFF" fill-rule="evenodd" xlink:href="#dew-e"/></g></g></svg>

<svg xmlns="http://www.w3.org/2000/svg" xmlns:xlink="http://www.w3.org/1999/xlink" width="32" height="32" viewBox="0 0 32 32"><defs><linearGradient id="c" x1="50%" x2="50%" y1="0%" y2="100%"><stop offset="0%" stop-color="#FFF" stop-opacity=".5"/><stop offset="100%" stop-opacity=".5"/></linearGradient><circle id="b" cx="16" cy="15" r="15"/><filter id="a" width="111.7%" height="111.7%" x="-5.8%" y="-4.2%" filterUnits="objectBoundingBox"><feOffset dy=".5" in="SourceAlpha" result="shadowOffsetOuter1"/><feGaussianBlur in="shadowOffsetOuter1" result="shadowBlurOuter1" stdDeviation=".5"/><feComposite in="shadowBlurOuter1" in2="SourceAlpha" operator="out" result="shadowBlurOuter1"/><feColorMatrix in="shadowBlurOuter1" values="0 0 0 0 0 0 0 0 0 0 0 0 0 0 0 0 0 0 0.199473505 0"/></filter><path id="e" d="M12.161 21.816c.618 0 1.12.49 1.12 1.092 0 .603-.502 1.092-1.12 1.092h-1.453c-.32 0-.628-.124-.854-.345a1.163 1.163 0 0 1-.354-.833V7.149c0-.305.124-.597.345-.813.22-.215.52-.336.833-.336h1.557c.618 0 1.12.489 1.12 1.092 0 .29-.119.567-.329.772-.21.204-.495.32-.791.32h-.345v13.632h.271zm12.17-11.452c.779 1.338 1.169 2.835 1.169 4.491 0 1.657-.395 3.153-1.182 4.492-.787 1.34-1.662 2.365-3.099 3.294-1.32.854-2.698 1.358-4.407 1.358h-.567c-.618 0-1.12-.489-1.12-1.092 0-.603.502-1.091 1.12-1.091h.69c1.21 0 2.089-.501 3.076-1.07.986-.568 1.618-1.499 2.19-2.503.573-1.003.86-2.124.86-3.362-.001-1.255-.291-2.384-.872-3.388a6.372 6.372 0 0 0-2.376-2.372c-1.004-.577-2.12-.866-3.347-.866h-.297c-.618 0-1.12-.488-1.12-1.091 0-.29.119-.568.329-.772.21-.205.494-.32.791-.32h.349c1.692 0 3.222.38 4.59 1.142a8.368 8.368 0 0 1 3.223 3.15z"/><filter id="d" width="121.9%" height="119.4%" x="-10.9%" y="-6.9%" filterUnits="objectBoundingBox"><feOffset dy=".5" in="SourceAlpha" result="shadowOffsetOuter1"/><feGaussianBlur in="shadowOffsetOuter1" result="shadowBlurOuter1" stdDeviation=".5"/><feColorMatrix in="shadowBlurOuter1" values="0 0 0 0 0 0 0 0 0 0 0 0 0 0 0 0 0 0 0.204257246 0"/></filter></defs><g fill="none" fill-rule="evenodd"><use fill="#000" filter="url(#a)" xlink:href="#b"/><use fill="#FEC907" xlink:href="#b"/><use fill="url(#c)" style="mix-blend-mode:soft-light" xlink:href="#b"/><circle cx="16" cy="15" r="14.5" stroke="#000" stroke-opacity=".097"/><g fill-rule="nonzero"><use fill="#000" filter="url(#d)" xlink:href="#e"/><use fill="#FFF" fill-rule="evenodd" xlink:href="#e"/></g></g></svg>
